images/svg/home-img.svg

<svg width="132" height="43" viewBox="0 0 132 43" fill="none" xmlns="http://www.w3.org/2000/svg">
<g clip-path="url(#clip0_2_144)">
<path d="M11.6337 0V0.18557L10.8629 0.371138V8.59327L11.6337 8.77884V8.96441H7.97946V8.77884L8.7503 8.59327V1.58447L5.7241 9.09288H5.33866L1.41317 1.58447V8.39343L2.44093 8.77884V8.96441H0V8.77884L1.02777 8.39343V0.371138L0.256931 0.18557V0H1.85567C2.09834 0 2.31246 0.0285483 2.48376 0.0856465C2.65505 0.142745 2.82637 0.214117 2.95484 0.314039C3.09758 0.413961 3.21178 0.528159 3.3117 0.65663C3.41162 0.785101 3.49728 0.94212 3.58292 1.09914L6.38072 6.45209L8.5219 1.09914C8.59327 0.913571 8.66466 0.756551 8.76459 0.62808C8.85023 0.49961 8.9644 0.385414 9.09287 0.285492C9.22134 0.18557 9.37839 0.114195 9.56396 0.0713716C9.74953 0.028548 9.9779 0 10.2634 0H11.6337Z" fill="#292F36"/>
<path d="M16.2015 2.38379C16.7297 2.38379 17.215 2.45516 17.629 2.61218C18.043 2.7692 18.3998 2.99759 18.6996 3.28309C18.9994 3.58285 19.2135 3.93971 19.3705 4.35368C19.5275 4.76764 19.5989 5.25297 19.5989 5.78113C19.5989 6.30929 19.5275 6.79462 19.3705 7.20858C19.2135 7.62254 18.9851 7.97941 18.6996 8.27917C18.3998 8.57894 18.043 8.79306 17.629 8.95008C17.215 9.1071 16.7297 9.17847 16.2015 9.17847C15.6734 9.17847 15.1881 9.1071 14.7741 8.95008C14.3601 8.79306 14.0033 8.56466 13.7035 8.27917C13.4037 7.97941 13.1896 7.62254 13.0326 7.20858C12.8756 6.79462 12.8042 6.30929 12.8042 5.78113C12.8042 5.25297 12.8756 4.76764 13.0326 4.35368C13.1896 3.93971 13.418 3.58285 13.7035 3.28309C14.0033 2.98332 14.3601 2.7692 14.7741 2.61218C15.1881 2.45516 15.6591 2.38379 16.2015 2.38379ZM16.2015 8.9358C16.3443 8.9358 16.487 8.89298 16.6441 8.79306C16.7868 8.69314 16.9153 8.53611 17.0294 8.29345C17.1436 8.05078 17.2436 7.73674 17.315 7.33705C17.3863 6.92309 17.4291 6.40921 17.4291 5.7954C17.4291 5.16732 17.3863 4.65344 17.315 4.25375C17.2436 3.85407 17.1436 3.52575 17.0294 3.29736C16.9153 3.06897 16.7868 2.89768 16.6441 2.79775C16.5013 2.69783 16.3586 2.65501 16.2015 2.65501C16.0588 2.65501 15.9161 2.69783 15.759 2.79775C15.6163 2.89768 15.4878 3.05469 15.3736 3.29736C15.2594 3.54003 15.1595 3.85407 15.0881 4.25375C15.0168 4.66772 14.9739 5.1816 14.9739 5.7954C14.9739 6.42348 15.0168 6.93737 15.0881 7.33705C15.1595 7.73674 15.2594 8.06506 15.3736 8.29345C15.4878 8.52184 15.6163 8.69314 15.759 8.79306C15.9018 8.8787 16.0445 8.9358 16.2015 8.9358Z" fill="#292F36"/>
<path d="M25.8369 0C26.6078 0 26.9932 0.385412 26.9932 1.15624V8.60755L27.764 8.79311V8.97868H26.6078C26.2937 8.97868 26.051 8.93586 25.8655 8.83594C25.6799 8.73602 25.5229 8.62182 25.423 8.50762C25.2945 8.36488 25.1946 8.19358 25.1375 8.02229C25.0233 8.25068 24.8805 8.43625 24.7092 8.60755C24.5665 8.75029 24.3666 8.87876 24.124 9.00723C23.8813 9.1357 23.5958 9.1928 23.2675 9.1928C22.8964 9.1928 22.5538 9.12143 22.2397 8.97868C21.9114 8.83594 21.6402 8.62182 21.4118 8.33633C21.1834 8.05084 20.9836 7.69397 20.8551 7.28001C20.7124 6.85178 20.6553 6.36644 20.6553 5.79546C20.6553 5.22448 20.7267 4.73915 20.8551 4.31091C20.9979 3.88267 21.1834 3.54009 21.4404 3.2546C21.683 2.9691 21.9828 2.75499 22.3254 2.61224C22.668 2.46949 23.0534 2.39812 23.4816 2.39812C23.71 2.39812 23.9099 2.42667 24.0954 2.46949C24.281 2.52659 24.438 2.58369 24.5665 2.65506C24.7235 2.72644 24.852 2.81208 24.9662 2.91201V0.413963L24.1954 0.228392V0.0428246H25.8369V0ZM24.9376 3.28314C24.8377 3.18322 24.7521 3.09758 24.6379 3.0262C24.538 2.95483 24.438 2.89773 24.3238 2.84063C24.2096 2.78353 24.0954 2.76926 23.967 2.76926C23.81 2.76926 23.6529 2.81208 23.5102 2.89773C23.3674 2.98338 23.2532 3.12612 23.139 3.34024C23.0391 3.55436 22.9535 3.8684 22.8964 4.25381C22.8393 4.6535 22.8107 5.15311 22.8107 5.78119C22.8107 6.39499 22.8393 6.88033 22.8964 7.26574C22.9535 7.65115 23.0249 7.95092 23.1248 8.16503C23.2104 8.37915 23.3104 8.53617 23.4388 8.60755C23.553 8.67892 23.6672 8.72174 23.7814 8.72174C23.9812 8.72174 24.1525 8.66464 24.2953 8.56472C24.438 8.4648 24.5522 8.33633 24.6521 8.20786C24.7663 8.05084 24.8663 7.87954 24.9519 7.69397V3.28314H24.9376Z" fill="#292F36"/>
<path d="M32.0605 9.19287C30.9614 9.19287 30.1049 8.89311 29.5054 8.29358C28.8916 7.69404 28.5918 6.85185 28.5918 5.79553C28.5918 5.26737 28.6632 4.78204 28.8202 4.36808C28.9772 3.95412 29.1913 3.59725 29.4626 3.29749C29.7338 2.99772 30.0621 2.78361 30.4618 2.62659C30.8472 2.46957 31.2754 2.39819 31.7465 2.39819C32.2318 2.39819 32.6601 2.46957 33.0312 2.59804C33.4166 2.74078 33.7306 2.92635 34.0019 3.15474C34.2731 3.38314 34.4729 3.65435 34.6157 3.96839C34.7584 4.28243 34.8298 4.61075 34.8298 4.96761C34.8298 5.0818 34.8298 5.196 34.8155 5.28165C34.8012 5.3673 34.787 5.45294 34.7727 5.52432C34.7441 5.60996 34.7298 5.68134 34.7013 5.73843C34.3302 5.80981 33.9305 5.88118 33.5022 5.924C33.1454 5.9811 32.7314 6.02392 32.2604 6.05247C31.7893 6.08102 31.304 6.10957 30.7901 6.10957C30.7901 6.63773 30.8329 7.08024 30.9043 7.43711C30.9756 7.79397 31.0898 8.07946 31.2183 8.2793C31.3611 8.49342 31.5181 8.63617 31.7036 8.72181C31.8892 8.80746 32.1034 8.85028 32.3175 8.85028C32.5744 8.85028 32.8171 8.80746 33.0454 8.70754C33.2738 8.60762 33.4737 8.49342 33.6307 8.3364C33.802 8.17938 33.9305 7.99381 34.0304 7.79397C34.1303 7.59413 34.1731 7.39428 34.1731 7.18016H34.4872C34.4872 7.4371 34.4301 7.67977 34.3159 7.92244C34.2017 8.1651 34.0304 8.37922 33.8163 8.56479C33.6022 8.75036 33.3452 8.89311 33.0454 9.0073C32.76 9.13577 32.4316 9.19287 32.0605 9.19287ZM30.7758 5.78126C31.0613 5.78126 31.3182 5.78126 31.5466 5.76698C31.775 5.75271 31.9606 5.73843 32.1176 5.72416C32.3032 5.70989 32.4459 5.68133 32.5744 5.66706C32.5887 5.58141 32.6172 5.48149 32.6315 5.38157C32.6458 5.28165 32.6601 5.18173 32.6743 5.06753C32.6886 4.95333 32.6886 4.82487 32.6886 4.69639C32.6886 4.31098 32.66 3.98267 32.6029 3.72573C32.5458 3.46878 32.4745 3.25466 32.3745 3.08337C32.2889 2.92635 32.189 2.79788 32.0605 2.74078C31.932 2.68368 31.8321 2.64086 31.7179 2.64086C31.6037 2.64086 31.4895 2.68368 31.3753 2.76933C31.2612 2.85498 31.1612 3.012 31.0613 3.22612C30.9757 3.45451 30.89 3.76855 30.8329 4.18251C30.7758 4.59647 30.7758 5.12463 30.7758 5.78126Z" fill="#292F36"/>
<path d="M40.2255 2.82649C39.9686 2.82649 39.7402 2.88359 39.5403 2.98351C39.3405 3.08343 39.1692 3.2119 39.0264 3.34037C38.8694 3.49739 38.7409 3.66869 38.6125 3.85426V8.60768L39.3833 8.79324V8.97881H35.7861V8.79324L36.557 8.60768V2.95496L35.7861 2.76939V2.58382H36.9424C37.2421 2.58382 37.4848 2.64092 37.6846 2.74084C37.8702 2.84076 38.0272 2.95496 38.1414 3.06916C38.2699 3.2119 38.3698 3.36892 38.4269 3.54021C38.5554 3.35465 38.7124 3.18335 38.898 3.02633C39.055 2.89786 39.2549 2.78367 39.4975 2.66947C39.7402 2.55527 40.0114 2.51245 40.3397 2.51245C40.7965 2.51245 41.1391 2.62664 41.3675 2.82649C41.5959 3.04061 41.6958 3.34037 41.6958 3.72579C41.6958 4.01128 41.6101 4.25394 41.4388 4.42524C41.2675 4.59653 41.0249 4.68218 40.7394 4.68218C40.668 4.68218 40.6109 4.68218 40.5395 4.68218C40.4682 4.68218 40.4254 4.6679 40.3825 4.6679C40.3254 4.65363 40.2683 4.65363 40.2255 4.62508V2.82649Z" fill="#292F36"/>
<path d="M47.2201 4.49653C47.2201 4.21104 47.1915 3.9541 47.1344 3.73999C47.0773 3.52587 47.006 3.35457 46.9061 3.2261C46.8204 3.08336 46.7205 2.98343 46.592 2.92633C46.4778 2.86924 46.3636 2.82641 46.2494 2.82641C46.0496 2.82641 45.8783 2.88351 45.7355 2.98343C45.5928 3.08336 45.4643 3.21183 45.3787 3.3403C45.2645 3.49732 45.1788 3.66861 45.0932 3.85418V8.6076L45.864 8.79317V8.97874H42.2668V8.79317L43.0376 8.6076V2.95488L42.2668 2.76932V2.58375H43.4231C43.7228 2.58375 43.9655 2.64085 44.1653 2.74077C44.3509 2.84069 44.5079 2.95488 44.6221 3.06908C44.7506 3.21183 44.8505 3.36885 44.9076 3.54014C45.0218 3.32602 45.1646 3.12618 45.3359 2.95488C45.4786 2.81214 45.6784 2.68367 45.9068 2.5552C46.1352 2.42673 46.435 2.36963 46.7776 2.36963C47.1487 2.36963 47.4913 2.42673 47.7911 2.5552C48.1051 2.6694 48.362 2.84069 48.5762 3.02626C48.7903 3.2261 48.9616 3.44022 49.0901 3.69716C49.2185 3.9541 49.2756 4.21104 49.2756 4.48226V8.59333L50.0464 8.77889V8.96447H48.3763C47.6055 8.96447 47.2201 8.57905 47.2201 7.80823V4.49653Z" fill="#292F36"/>
<path d="M1.35596 18.0001V17.4719H11.2767V18.0001L9.19266 18.5283V29.3055H16.6725V18.5283L14.5884 18.0001V17.4719H24.5093V18.0001L22.4251 18.5283V40.7965L24.5093 41.3247V41.8529H14.5884V41.3104L16.6725 40.7823V30.1763H9.19266V40.7823L11.2767 41.3104V41.8386H1.35596V41.3104L3.44003 40.7823V18.514L1.35596 18.0001Z" fill="#292F36"/>
<path d="M36.8424 23.9099C38.2842 23.9099 39.5689 24.124 40.7108 24.5379C41.8528 24.9519 42.8092 25.5657 43.6085 26.3651C44.4079 27.1644 45.0217 28.1351 45.4357 29.2771C45.8496 30.419 46.0638 31.7037 46.0638 33.1455C46.0638 34.5872 45.8496 35.8719 45.4357 37.0139C45.0217 38.1558 44.4079 39.1122 43.6085 39.9116C42.8092 40.711 41.8385 41.3248 40.7108 41.7387C39.5689 42.1527 38.2842 42.3668 36.8424 42.3668C35.4007 42.3668 34.116 42.1527 32.974 41.7387C31.8321 41.3248 30.8757 40.711 30.0763 39.9116C29.2769 39.1122 28.6631 38.1416 28.2492 37.0139C27.8352 35.8719 27.6211 34.5872 27.6211 33.1455C27.6211 31.7037 27.8352 30.419 28.2492 29.2771C28.6631 28.1351 29.2769 27.1787 30.0763 26.3651C30.8757 25.5514 31.8464 24.9519 32.974 24.5379C34.116 24.124 35.4007 23.9099 36.8424 23.9099ZM36.8424 41.6531C37.2421 41.6531 37.6276 41.5246 38.0272 41.2677C38.4269 41.0107 38.7695 40.5682 39.0835 39.9259C39.3976 39.2835 39.6545 38.4128 39.8544 37.3136C40.0542 36.2145 40.1541 34.8156 40.1541 33.1169C40.1541 31.4183 40.0542 30.0193 39.8544 28.9202C39.6545 27.8211 39.3976 26.9503 39.0835 26.308C38.7695 25.6656 38.4127 25.2231 38.0272 24.9662C37.6418 24.7092 37.2421 24.5808 36.8424 24.5808C36.4427 24.5808 36.0574 24.7092 35.6577 24.9662C35.258 25.2231 34.9154 25.6656 34.6013 26.308C34.2873 26.9503 34.0304 27.8211 33.8305 28.9202C33.6307 30.0193 33.5307 31.4183 33.5307 33.1169C33.5307 34.8156 33.6307 36.2145 33.8305 37.3136C34.0304 38.4128 34.2873 39.2835 34.6013 39.9259C34.9154 40.5682 35.2723 41.0107 35.6577 41.2677C36.0574 41.5246 36.4427 41.6531 36.8424 41.6531Z" fill="#292F36"/>
<path d="M72.1436 29.6482C72.1436 28.8203 72.0722 28.1065 71.9295 27.5498C71.7867 26.9931 71.6154 26.5221 71.387 26.1652C71.1587 25.8084 70.916 25.5514 70.659 25.3801C70.3878 25.2231 70.1309 25.1374 69.8739 25.1374C69.4314 25.1374 69.046 25.2802 68.7034 25.5657C68.3608 25.8512 68.0754 26.1795 67.8184 26.5221C67.5472 26.936 67.2902 27.4071 67.0904 27.9067V40.7823L69.1888 41.3105V41.8387H59.4535V41.3105L61.5376 40.7823V29.6482C61.5376 28.8203 61.4662 28.1065 61.3235 27.5498C61.1807 26.9931 61.0094 26.5221 60.781 26.1652C60.5526 25.8084 60.31 25.5514 60.0531 25.3801C59.7818 25.2231 59.5249 25.1374 59.2679 25.1374C58.8254 25.1374 58.44 25.2802 58.0975 25.5657C57.7549 25.8512 57.4693 26.1795 57.2124 26.5221C56.9269 26.936 56.6843 27.4071 56.4844 27.9067V40.7823L58.5685 41.3105V41.8387H48.8333V41.3105L50.9174 40.7823V25.48L48.8333 24.9519V24.4237H51.9594C52.773 24.4237 53.4439 24.5665 53.9578 24.8377C54.486 25.1089 54.8857 25.4229 55.1997 25.737C55.5423 26.1367 55.7992 26.5649 55.9705 27.0217C56.2703 26.4364 56.6414 25.9225 57.0839 25.4515C57.4836 25.0518 57.969 24.6949 58.54 24.3666C59.1252 24.0383 59.8247 23.8813 60.6669 23.8813C62.0515 23.8813 63.2648 24.1953 64.264 24.8091C65.2775 25.4229 66.0484 26.2223 66.5765 27.193C66.8763 26.5934 67.2474 26.051 67.6899 25.5514C68.0896 25.1374 68.5749 24.752 69.1459 24.4094C69.7312 24.0669 70.4306 23.8813 71.2728 23.8813C72.2292 23.8813 73.0857 24.0383 73.8851 24.3381C74.6702 24.6378 75.3554 25.0518 75.9263 25.58C76.4973 26.1081 76.9398 26.7076 77.2539 27.4071C77.5679 28.1066 77.7249 28.8488 77.7249 29.6339V40.7681L79.809 41.2962V41.8244H75.284C73.1999 41.8244 72.1578 40.7823 72.1578 38.6983V29.6482H72.1436Z" fill="#292F36"/>
<path d="M91.2857 42.3524C88.3166 42.3524 86.0041 41.5388 84.3626 39.8972C82.721 38.2556 81.8931 36.0145 81.8931 33.1311C81.8931 31.6894 82.1072 30.4047 82.5211 29.2627C82.9351 28.1207 83.5204 27.1643 84.2626 26.3507C85.0049 25.5513 85.9042 24.9375 86.9606 24.5235C88.0169 24.1096 89.1731 23.8955 90.415 23.8955C91.7139 23.8955 92.8845 24.081 93.9122 24.4522C94.94 24.8233 95.825 25.3229 96.5388 25.951C97.2525 26.5791 97.8092 27.3214 98.1946 28.1636C98.58 29.0057 98.7656 29.905 98.7656 30.8614C98.7656 31.1898 98.7513 31.4752 98.7085 31.7179C98.6656 31.9606 98.6371 32.1747 98.58 32.3603C98.5086 32.5887 98.4515 32.7885 98.4087 32.9455C97.3809 33.1596 96.3104 33.3309 95.1684 33.4737C94.1977 33.6164 93.07 33.7306 91.7996 33.8448C90.5292 33.9447 89.1874 34.0018 87.8027 34.0018C87.8027 35.4436 87.9027 36.6426 88.1168 37.599C88.3309 38.5554 88.6164 39.3262 88.9875 39.8972C89.3587 40.4682 89.8012 40.8679 90.315 41.1106C90.8289 41.3532 91.3856 41.4817 91.9852 41.4817C92.6846 41.4817 93.3413 41.3532 93.9551 41.0963C94.5689 40.8393 95.097 40.4968 95.5538 40.0685C96.0106 39.6403 96.3675 39.1549 96.6387 38.6125C96.9099 38.0701 97.0384 37.5134 97.0384 36.9567H97.9091C97.9091 37.6561 97.7521 38.327 97.4381 38.9694C97.124 39.626 96.6815 40.197 96.0962 40.6966C95.511 41.1962 94.8258 41.5959 94.0122 41.8957C93.1843 42.1954 92.2707 42.3524 91.2857 42.3524ZM87.8027 33.1311C88.5878 33.1311 89.2873 33.1168 89.8868 33.074C90.4863 33.0312 91.0002 33.0026 91.4142 32.9598C91.8995 32.917 92.3135 32.8599 92.6704 32.7885C92.7132 32.5601 92.7703 32.3032 92.8417 32.0177C92.8845 31.7607 92.9273 31.4752 92.9558 31.1612C92.9844 30.8472 93.0129 30.5188 93.0129 30.1763C93.0129 29.1342 92.9273 28.2635 92.7703 27.5497C92.6132 26.836 92.3991 26.265 92.1565 25.8225C91.9138 25.38 91.6283 25.066 91.3286 24.8804C91.0145 24.6948 90.7004 24.5949 90.4007 24.5949C90.1009 24.5949 89.7869 24.7091 89.4728 24.9232C89.1588 25.1516 88.8876 25.5656 88.6449 26.1794C88.4023 26.7932 88.2024 27.6639 88.0311 28.7774C87.8884 29.8908 87.8027 31.3468 87.8027 33.1311Z" fill="#292F36"/>
<path d="M115.852 41.4818V27.3643L103.376 17.4863V41.4818H115.852Z" fill="#292F36"/>
<path d="M131.283 41.4818V27.3643L119.007 17.4863V41.4818H131.283Z" fill="#292F36"/>
</g>
<defs>
<clipPath id="clip0_2_144">
<rect width="132" height="43" fill="white"/>
</clipPath>
</defs>
</svg>

<svg width="132" height="43" fill="none" xmlns="http://www.w3.org/2000/svg"><g clip-path="url(#a)" fill="#292F36"><path d="M11.634 0v.186l-.771.185v8.222l.77.186v.185H7.98V8.78l.771-.186V1.584L5.724 9.093H5.34L1.413 1.584v6.81l1.028.385v.185H0V8.78l1.028-.386V.371L.257.186V0h1.599c.242 0 .456.029.628.086a1.606 1.606 0 0 1 .828.57c.1.13.185.286.27.443l2.799 5.353L8.52 1.1a1.82 1.82 0 0 1 .244-.47c.085-.13.2-.244.328-.344.128-.1.285-.17.471-.214.186-.042.414-.071.7-.071h1.37ZM16.201 2.384c.529 0 1.014.071 1.428.228.414.157.77.386 1.07.671.3.3.514.657.671 1.07.157.415.229.9.229 1.428 0 .528-.072 1.014-.229 1.428a3.17 3.17 0 0 1-.67 1.07c-.3.3-.657.514-1.071.671-.414.157-.9.228-1.428.228-.528 0-1.013-.07-1.427-.228a3.17 3.17 0 0 1-1.07-.67c-.3-.3-.514-.657-.671-1.071-.157-.414-.229-.9-.229-1.428 0-.528.072-1.013.229-1.427a3.17 3.17 0 0 1 .67-1.07c.3-.3.657-.515 1.071-.672.414-.157.885-.228 1.428-.228Zm0 6.552a.808.808 0 0 0 .443-.143c.143-.1.271-.257.385-.5.115-.242.215-.556.286-.956.071-.414.114-.928.114-1.542 0-.628-.043-1.142-.114-1.541-.071-.4-.171-.728-.286-.957-.114-.228-.242-.4-.385-.5a.743.743 0 0 0-.442-.142.808.808 0 0 0-.443.143c-.143.1-.271.257-.385.5a3.84 3.84 0 0 0-.286.956 9.211 9.211 0 0 0-.114 1.541c0 .628.043 1.142.114 1.542.072.4.171.728.286.956.114.229.242.4.385.5a.855.855 0 0 0 .442.143ZM25.837 0c.77 0 1.156.385 1.156 1.156v7.452l.771.185v.186h-1.156c-.314 0-.557-.043-.742-.143a1.62 1.62 0 0 1-.443-.328 1.404 1.404 0 0 1-.285-.486 2.212 2.212 0 0 1-.429.586 2.455 2.455 0 0 1-.585.4c-.243.128-.528.185-.857.185-.37 0-.713-.072-1.027-.214a2.136 2.136 0 0 1-.828-.643 3.227 3.227 0 0 1-.557-1.056c-.143-.428-.2-.914-.2-1.485 0-.57.072-1.056.2-1.484.143-.428.328-.77.585-1.056.243-.286.543-.5.885-.643a2.98 2.98 0 0 1 1.157-.214c.228 0 .428.029.613.071.186.058.343.115.472.186.157.071.285.157.4.257V.414l-.772-.186V.043h1.642V0Zm-.9 3.283c-.1-.1-.185-.185-.3-.257-.099-.071-.199-.128-.313-.185a.762.762 0 0 0-.357-.072.885.885 0 0 0-.457.129c-.143.085-.257.228-.371.442-.1.214-.186.528-.243.914-.057.4-.085.9-.085 1.527 0 .614.028 1.1.085 1.485.057.385.129.685.229.899.085.214.185.371.314.443a.653.653 0 0 0 .342.114c.2 0 .372-.057.514-.157.143-.1.257-.229.357-.357.114-.157.214-.328.3-.514v-4.41h-.014ZM32.06 9.193c-1.099 0-1.955-.3-2.555-.9-.613-.599-.913-1.441-.913-2.497 0-.529.071-1.014.228-1.428.157-.414.371-.77.643-1.07.27-.3.6-.514.999-.671a3.375 3.375 0 0 1 1.285-.229c.485 0 .913.072 1.284.2.386.143.7.328.97.557.272.228.472.5.615.813.142.314.214.643.214 1 0 .114 0 .228-.014.314-.015.085-.029.17-.043.242-.029.086-.043.157-.072.214-.37.072-.77.143-1.199.186-.357.057-.77.1-1.242.128a23.9 23.9 0 0 1-1.47.058c0 .528.043.97.114 1.327.072.357.186.642.314.842.143.214.3.357.486.443.185.085.4.128.614.128.256 0 .5-.043.727-.142a1.866 1.866 0 0 0 .985-.914c.1-.2.143-.4.143-.614h.314c0 .257-.057.5-.171.742a1.959 1.959 0 0 1-.5.643 2.536 2.536 0 0 1-.77.442c-.286.129-.614.186-.986.186ZM30.776 5.78c.285 0 .542 0 .77-.014.229-.014.415-.029.572-.043.185-.014.328-.043.456-.057.015-.086.043-.186.058-.285.014-.1.028-.2.042-.314.015-.115.015-.243.015-.372 0-.385-.029-.713-.086-.97a2.243 2.243 0 0 0-.229-.643c-.085-.157-.185-.285-.314-.342-.128-.057-.228-.1-.342-.1a.57.57 0 0 0-.343.128c-.114.086-.214.243-.314.457a4.484 4.484 0 0 0-.228.957c-.057.413-.057.942-.057 1.598ZM40.225 2.826c-.256 0-.485.058-.685.158-.2.1-.37.228-.514.356a3.62 3.62 0 0 0-.414.514v4.754l.771.185v.186h-3.597v-.186l.771-.185V2.955l-.77-.186v-.185h1.155c.3 0 .543.057.743.157.185.1.342.214.456.328.129.143.229.3.286.471a2.65 2.65 0 0 1 .471-.514 2.89 2.89 0 0 1 .6-.357c.242-.114.513-.157.842-.157.456 0 .8.115 1.027.314.229.215.329.514.329.9 0 .285-.086.528-.257.7-.172.17-.414.256-.7.256h-.2c-.07 0-.114-.014-.157-.014-.057-.014-.114-.014-.157-.043V2.826ZM47.22 4.497c0-.286-.029-.543-.086-.757a1.431 1.431 0 0 0-.228-.514.702.702 0 0 0-.314-.3.784.784 0 0 0-.343-.1c-.2 0-.37.058-.514.157-.142.1-.27.229-.356.357a2.97 2.97 0 0 0-.286.514v4.754l.771.185v.186h-3.597v-.186l.77-.185V2.955l-.77-.186v-.185h1.156c.3 0 .542.057.742.157.186.1.343.214.457.328.129.143.228.3.286.471a2.47 2.47 0 0 1 .428-.585 2.66 2.66 0 0 1 .57-.4c.23-.128.529-.185.872-.185.37 0 .713.057 1.013.185a2.5 2.5 0 0 1 .785.471c.214.2.386.414.514.671.128.257.186.514.186.785v4.111l.77.186v.185h-1.67c-.77 0-1.156-.385-1.156-1.156V4.497ZM1.356 18v-.528h9.92V18l-2.083.528v10.777h7.48V18.529L14.587 18v-.528h9.921V18l-2.084.528v22.269l2.084.528v.528h-9.92v-.543l2.083-.528V30.176h-7.48v10.606l2.085.528v.529H1.356v-.529l2.084-.528V18.514L1.356 18ZM36.842 23.91c1.442 0 2.727.214 3.869.628a7.781 7.781 0 0 1 2.898 1.827c.799.8 1.413 1.77 1.827 2.912.414 1.142.628 2.427.628 3.868 0 1.442-.214 2.727-.628 3.869a7.783 7.783 0 0 1-1.828 2.898c-.799.799-1.77 1.413-2.897 1.827-1.142.414-2.427.628-3.869.628-1.441 0-2.726-.214-3.868-.628a7.781 7.781 0 0 1-2.898-1.827c-.8-.8-1.413-1.77-1.827-2.898-.414-1.142-.628-2.427-.628-3.869 0-1.441.214-2.726.628-3.868a7.954 7.954 0 0 1 1.827-2.912c.8-.814 1.77-1.413 2.898-1.827 1.142-.414 2.427-.628 3.868-.628Zm0 17.743c.4 0 .786-.128 1.185-.385.4-.257.742-.7 1.056-1.342.315-.643.572-1.513.771-2.612.2-1.1.3-2.498.3-4.197 0-1.699-.1-3.098-.3-4.197-.2-1.099-.456-1.97-.77-2.612-.315-.642-.671-1.085-1.057-1.342-.385-.257-.785-.385-1.185-.385s-.785.128-1.184.385c-.4.257-.743.7-1.057 1.342-.314.642-.57 1.513-.77 2.612-.2 1.1-.3 2.498-.3 4.197 0 1.699.1 3.098.3 4.197.2 1.099.456 1.97.77 2.612.314.642.671 1.085 1.057 1.342.4.257.785.385 1.184.385ZM72.144 29.648c0-.828-.072-1.541-.215-2.098-.142-.557-.314-1.028-.542-1.385-.228-.357-.471-.614-.728-.785-.271-.157-.528-.243-.785-.243-.443 0-.828.143-1.17.429a5.589 5.589 0 0 0-.886.956 7.93 7.93 0 0 0-.728 1.385v12.875l2.099.529v.528h-9.735v-.529l2.084-.528V29.648c0-.828-.072-1.541-.214-2.098-.143-.557-.315-1.028-.543-1.385-.228-.357-.471-.614-.728-.785-.271-.157-.528-.243-.785-.243-.443 0-.828.143-1.17.429a5.585 5.585 0 0 0-.886.956 7.073 7.073 0 0 0-.728 1.385v12.875l2.084.529v.528h-9.735v-.529l2.084-.528V25.48l-2.084-.528v-.528h3.126c.814 0 1.485.143 1.999.414.528.27.928.585 1.242.899.342.4.6.828.77 1.285a6.8 6.8 0 0 1 1.114-1.57c.4-.4.885-.757 1.456-1.085.585-.329 1.285-.486 2.127-.486 1.384 0 2.598.314 3.597.928 1.014.614 1.784 1.413 2.313 2.384.3-.6.67-1.142 1.113-1.642.4-.414.885-.799 1.456-1.142.585-.342 1.285-.528 2.127-.528.956 0 1.813.157 2.612.457.785.3 1.47.714 2.041 1.242a5.568 5.568 0 0 1 1.328 1.827c.314.7.47 1.442.47 2.227v11.134l2.085.528v.528h-4.525c-2.084 0-3.126-1.042-3.126-3.126v-9.05h-.014ZM91.286 42.352c-2.97 0-5.282-.813-6.923-2.455-1.642-1.641-2.47-3.883-2.47-6.766 0-1.442.214-2.726.628-3.868a8.603 8.603 0 0 1 1.742-2.912 7.239 7.239 0 0 1 2.698-1.828c1.056-.413 2.212-.628 3.454-.628 1.299 0 2.47.186 3.497.557 1.028.371 1.913.87 2.627 1.499a6.582 6.582 0 0 1 1.656 2.213 6.4 6.4 0 0 1 .57 2.697c0 .329-.014.614-.056.857-.043.243-.072.457-.129.642-.071.229-.129.428-.171.586a40.48 40.48 0 0 1-3.24.528c-.971.142-2.099.257-3.37.37-1.27.1-2.612.158-3.996.158 0 1.442.1 2.64.314 3.597.214.956.5 1.727.87 2.298.372.571.814.97 1.328 1.214.514.242 1.07.37 1.67.37.7 0 1.356-.128 1.97-.385a5.3 5.3 0 0 0 1.599-1.027 5.103 5.103 0 0 0 1.085-1.457c.27-.542.4-1.099.4-1.655h.87c0 .7-.157 1.37-.47 2.012a5.193 5.193 0 0 1-1.343 1.728c-.585.5-1.27.899-2.084 1.199-.828.3-1.741.456-2.726.456Zm-3.483-9.22c.785 0 1.484-.015 2.084-.058.6-.043 1.113-.071 1.527-.114.486-.043.9-.1 1.256-.172.043-.228.1-.485.172-.77.043-.257.085-.543.114-.857.028-.314.057-.642.057-.985 0-1.042-.086-1.912-.243-2.626s-.37-1.285-.614-1.727c-.242-.443-.528-.757-.827-.943-.314-.185-.629-.285-.928-.285-.3 0-.614.114-.928.328-.314.229-.585.643-.828 1.256-.243.614-.443 1.485-.614 2.598-.143 1.114-.228 2.57-.228 4.354ZM115.852 41.482V27.364l-12.476-9.878v23.996h12.476ZM131.283 41.482V27.364l-12.276-9.878v23.996h12.276Z"/></g><defs><clipPath id="a"><path fill="#fff" d="M0 0h132v43H0z"/></clipPath></defs></svg>
